svg/package_variant_closed_minus.svg

<svg xmlns="http://www.w3.org/2000/svg" viewBox="0 0 24 24"><path d="m13 12.6 6-3.4V13c.7 0 1.4.1 2 .4V7.5c0-.4-.2-.7-.5-.9l-7.9-4.4c-.2-.1-.4-.2-.6-.2s-.4.1-.6.2L3.5 6.6c-.3.2-.5.5-.5.9v9c0 .4.2.7.5.9l7.9 4.4c.2.1.4.2.6.2s.4-.1.6-.2l.9-.5c-.3-.6-.4-1.3-.5-2M12 4.2l6 3.3-2 1.1-5.9-3.4zm-1 15.1-6-3.4V9.2l6 3.4zm1-8.5L6 7.5l2-1.2 6 3.5zM23 18v2h-8v-2z"/></svg>

<svg xmlns="http://www.w3.org/2000/svg" id="mdi-package-variant-closed-minus" viewBox="0 0 24 24"><path d="M13 12.6L19 9.2V13C19.7 13 20.4 13.1 21 13.4V7.5C21 7.1 20.8 6.8 20.5 6.6L12.6 2.2C12.4 2.1 12.2 2 12 2S11.6 2.1 11.4 2.2L3.5 6.6C3.2 6.8 3 7.1 3 7.5V16.5C3 16.9 3.2 17.2 3.5 17.4L11.4 21.8C11.6 21.9 11.8 22 12 22S12.4 21.9 12.6 21.8L13.5 21.3C13.2 20.7 13.1 20 13 19.3M12 4.2L18 7.5L16 8.6L10.1 5.2L12 4.2M11 19.3L5 15.9V9.2L11 12.6V19.3M12 10.8L6 7.5L8 6.3L14 9.8L12 10.8M23 18V20H15V18H23Z" /></svg>
